src/22/panel/prime-intel.svg

<svg xmlns="http://www.w3.org/2000/svg" width="22" height="22" version="1"><defs><style id="current-color-scheme" type="text/css">.ColorScheme-Text{color:#dfdfdf;}.ColorScheme-Highlight{color:#5294e2;}</style></defs><defs><style id="current-color-scheme" type="text/css"></style></defs><path d="M4 3c-1.108 0-2 .892-2 2v12c0 1.108.892 2 2 2h14c1.108 0 2-.892 2-2V5c0-1.108-.892-2-2-2zM3 7h1v1H3zm7 1h1v1h1v1h-1v2c0 .258.053 1 .324 1H12v1h-1c-.931 0-1-1.17-1-1.801zm8 0h1v6c-.86-.082-1-.406-1-1zM3 9h1v5c-.86-.082-1-.906-1-1.5zm2 0h2.5c.998-.012 1.5.867 1.5 1.5V14H8v-3.5c0-.264-.336-.5-.67-.5H6v4H5zm10.098 0h.002c1.206.001 1.9 1.055 1.9 2.439V12h-2.855c.046.561.39.969.986.969.503 0 .753-.151 1.043-.461l.697.724c-.449.477-.917.766-1.748.766-1.084 0-2.121-.639-2.121-2.504 0-1.593.904-2.493 2.096-2.494zM15 10a1 1 0 0 0-1 1h2a1 1 0 0 0-1-1z" fill="currentColor" class="ColorScheme-Text"/></svg>

<svg xmlns="http://www.w3.org/2000/svg" width="22" height="22" version="1">
 <defs>
  <style id="current-color-scheme" type="text/css">
   .ColorScheme-Text { color:#dfdfdf; } .ColorScheme-Highlight { color:#4285f4; }
  </style>
 </defs>
 <path style="fill:currentColor" class="ColorScheme-Text" d="M 4,3 C 2.892,3 2,3.892 2,5 V 17 C 2,18.108 2.892,19 4,19 H 18 C 19.108,19 20,18.108 20,17 V 5 C 20,3.892 19.108,3 18,3 Z M 3,7 H 4 V 8 H 3 Z M 10,8 H 11 V 9 H 12 V 10 H 11 V 12 C 11,12.258 11.053,13 11.324,13 H 12 V 14 H 11 C 10.069,14 10,12.83 10,12.199 Z M 18,8 H 19 V 14 C 18.14,13.918 18,13.594 18,13 Z M 3,9 H 4 V 14 C 3.1401,13.918 3,13.094 3,12.5 Z M 5,9 H 7.5 C 8.4976,8.9884 9,9.8671 9,10.5 V 14 H 8 V 10.5 C 8,10.236 7.664,10 7.3301,10 H 6 V 14 H 5 Z M 15.098,9 H 15.1 C 16.306,9.0012 17,10.055 17,11.439 V 12 H 14.145 C 14.191,12.561 14.535,12.969 15.131,12.969 15.634,12.969 15.884,12.818 16.174,12.508 L 16.871,13.232 C 16.422,13.709 15.954,13.998 15.123,13.998 14.039,13.998 13.002,13.359 13.002,11.494 13.002,9.9012 13.906,9.001 15.098,9 Z M 15,10 A 1,1 0 0 0 14,11 H 16 A 1,1 0 0 0 15,10 Z"/>
</svg>
